antibot/app/images/dist/select-icon.svg

<svg width="12" height="8" viewBox="0 0 12 8" fill="none" xmlns="http://www.w3.org/2000/svg">
<path d="M4.94841 7.29955L1.04843 3.39988C0.573431 2.92492 0.467432 2.38147 0.73043 1.76952C0.993429 1.15757 1.46193 0.851098 2.13592 0.850098H9.86088C10.5359 0.850098 11.0049 1.15657 11.2679 1.76952C11.5309 2.38247 11.4244 2.92592 10.9484 3.39988L7.04839 7.29955C6.89839 7.44954 6.7359 7.56203 6.5609 7.63702C6.3859 7.71201 6.1984 7.74951 5.9984 7.74951C5.7984 7.74951 5.6109 7.71201 5.4359 7.63702C5.2609 7.56203 5.0984 7.44954 4.94841 7.29955Z" fill="#111111"/>
</svg>

<svg width="12" height="8" fill="none" xmlns="http://www.w3.org/2000/svg"><path d="m4.948 7.3-3.9-3.9C.573 2.925.468 2.38.73 1.77c.263-.612.732-.919 1.406-.92H9.86c.675 0 1.144.307 1.407.92.263.612.156 1.156-.32 1.63l-3.9 3.9c-.15.15-.312.262-.487.337a1.413 1.413 0 0 1-.563.113c-.2 0-.387-.038-.562-.113a1.557 1.557 0 0 1-.488-.337Z" fill="#111"/></svg>
